X: 30510
T: Olives For The King
R: reel
M: 4/4
K: Cmajor
|:cGGG AGAg|edcd e2ed|c2cd cAGA|GGGg edcd|
c2GG AGAe|dcAc e2eg|aedc AGAd|1 zedc c4:|2 zedc c2cB||
|:A2AG ABcA|GEGA cedc|d2dc dedc|dcde gedc|
A2AG ABcA|GEGA cedc|dGGG dGGd|1 GGeG dcBG:|2 GGeG dcBd||

